X:72
T: DENKST DU DARAN MEIN TAPFRER LAGIENKA
N: B0096
O: Europa, Mitteleuropa, Deutschland
R: Helden -, Ehren -, Gedaechtnis -, Kriegs - Lied
M: 4/4
L: 1/16
K: Eb
B2B2B2 | B6G2G2G2G2G2 | G4E4z2
E2E2E2 | F6E2D3Fc3B | G8z2
B2B2B2 | B6G2G2G2G2G2 | G4E4z2
E2E2E2 | F6E2D3Fc3B | G8z2
E2E2E2 | A6A2A2A2B2c2 | B2G2E6
E2E2E2 | A6A2A2e2d2c2 | B8z2
B2B2B2 | B6G2G2G2G2G2 | G4E4z2
E2E2E2 | F6E2D3Fc3B | G8z2
E2E2E2 | c6B2A2A2B2c2 | c4B4z2
B2e2G2 | F6E2D3Fc3B | E8z2

@@@ Tune index: 1875
